X:2392
T:Grimaldies Hornpipe. GHW.078
T:Alexander's Hp,aka. GHW.078
O:england
M:2/4
L:1/8
Q:300
S:George H.Watson,MS,Swanton Abbott,Norfolk,1850-1880
R:Hornpipe
A:Norfolk
N:Transcribers Note: Essentially the same as Tune 60 with slightly
N:different bowing. Interesting to note that the 3rd.
N:note of the 7th. bar - b - appears to be crossed out in both
N:versions.TT.
K:D
(3ABc)|(dA).F.A (DF).A.d|(fdAF) E2 (ef)|(gf)(ge) (fe).f.d|(ec).d.B A2 (
fe)|
(dA).F.A (DF).A.d|(fd).A.F E2 ef|(ge).b.g (fg).e.c|d2d2d2:|
|:(AG)|(FA).d.A (FA).d.A|(GB).d.B (GB).d.B|(Ac).e.c (Ac).e.c|(df).a.f (g
e)
.c.A|
|(FA).d.A (FA).d.A|(GB).d.B (GB).d.B|(Ac).e.g (fa).c.e|d2d2d2:|]


